src/assets/filled/HashtagUp.svg

<?xml version="1.0" encoding="UTF-8"?>
<svg width="24" height="24" viewBox="0 0 24 24" xmlns="http://www.w3.org/2000/svg">
 <path d="m10.08 11.83h1.65l0.19-1.66h-1.65l-0.19 1.66z"/>
 <path d="m21.97 7.21c-0.2-3.08-2.1-4.98-5.18-5.18-0.2-0.02-0.4-0.03-0.6-0.03h-8.38c-0.2 0-0.4 0.01-0.6 0.03-3.08 0.2-4.98 2.1-5.18 5.18-0.02 0.2-0.03 0.4-0.03 0.6v8.38c0 0.2 0.01 0.4 0.03 0.6 0.2 3.08 2.1 4.98 5.18 5.18 0.2 0.02 0.4 0.03 0.6 0.03h5.69c0.55 0 1-0.45 1-1v-2.97c0-1.95 1.58-3.53 3.53-3.53h2.97c0.55 0 1-0.45 1-1v-5.69c0-0.2-0.01-0.4-0.03-0.6zm-5.97 2.96h-2.57l-0.19 1.66h2.23c0.42 0 0.75 0.34 0.75 0.75s-0.33 0.75-0.75 0.75h-2.39l-0.28 2.49c-0.04 0.38-0.37 0.67-0.75 0.67-0.02 0-0.05 0-0.08-0.01-0.41-0.04-0.71-0.41-0.66-0.83l0.26-2.32h-1.65l-0.28 2.49c-0.04 0.38-0.37 0.67-0.74 0.67-0.03 0-0.06 0-0.09-0.01-0.41-0.04-0.71-0.41-0.66-0.83l0.26-2.32h-2.41c-0.41 0-0.75-0.34-0.75-0.75s0.34-0.75 0.75-0.75h2.57l0.19-1.66h-2.23c-0.42 0-0.75-0.34-0.75-0.75s0.33-0.75 0.75-0.75h2.39l0.28-2.49c0.05-0.41 0.42-0.71 0.83-0.66 0.41 0.04 0.71 0.41 0.66 0.83l-0.26 2.32h1.65l0.28-2.49c0.05-0.41 0.42-0.71 0.83-0.66 0.41 0.04 0.71 0.41 0.66 0.83l-0.26 2.32h2.41c0.41 0 0.75 0.34 0.75 0.75s-0.34 0.75-0.75 0.75z"/>
 <path d="m20.97 16h-2.94c-1.27 0-2.03 0.76-2.03 2.03v2.94c0 1.27 0.76 2.03 2.03 2.03h2.94c1.27 0 2.03-0.76 2.03-2.03v-2.94c0-1.27-0.76-2.03-2.03-2.03zm0.22 3.31c-0.12 0.12-0.28 0.18-0.44 0.18s-0.32-0.06-0.44-0.18l-0.18-0.18v2.24c0 0.35-0.28 0.63-0.63 0.63s-0.63-0.28-0.63-0.63v-2.24l-0.18 0.18c-0.24 0.24-0.64 0.24-0.88 0s-0.24-0.64 0-0.88l1.25-1.25c0.05-0.05 0.12-0.09 0.19-0.12 0.02-0.01 0.04-0.01 0.06-0.02 0.05-0.02 0.1-0.03 0.16-0.03h0.06c0.07 0 0.13 0.01 0.2 0.04h0.02c0.07 0.03 0.13 0.07 0.18 0.12 0.01 0.01 0.01 0.01 0.02 0.01l1.25 1.25c0.24 0.24 0.24 0.64-0.01 0.88z"/>
</svg>

<svg width="24" height="24" viewBox="0 0 24 24"  xmlns="http://www.w3.org/2000/svg">
<path d="M10.0801 11.8299H11.7301L11.9201 10.1699H10.2701L10.0801 11.8299Z" />
<path d="M21.97 7.21C21.77 4.13 19.87 2.23 16.79 2.03C16.59 2.01 16.39 2 16.19 2H7.81C7.61 2 7.41 2.01 7.21 2.03C4.13 2.23 2.23 4.13 2.03 7.21C2.01 7.41 2 7.61 2 7.81V16.19C2 16.39 2.01 16.59 2.03 16.79C2.23 19.87 4.13 21.77 7.21 21.97C7.41 21.99 7.61 22 7.81 22H13.5C14.05 22 14.5 21.55 14.5 21V18.03C14.5 16.08 16.08 14.5 18.03 14.5H21C21.55 14.5 22 14.05 22 13.5V7.81C22 7.61 21.99 7.41 21.97 7.21ZM16 10.17H13.43L13.24 11.83H15.47C15.89 11.83 16.22 12.17 16.22 12.58C16.22 12.99 15.89 13.33 15.47 13.33H13.08L12.8 15.82C12.76 16.2 12.43 16.49 12.05 16.49C12.03 16.49 12 16.49 11.97 16.48C11.56 16.44 11.26 16.07 11.31 15.65L11.57 13.33H9.92L9.64 15.82C9.6 16.2 9.27 16.49 8.9 16.49C8.87 16.49 8.84 16.49 8.81 16.48C8.4 16.44 8.1 16.07 8.15 15.65L8.41 13.33H6C5.59 13.33 5.25 12.99 5.25 12.58C5.25 12.17 5.59 11.83 6 11.83H8.57L8.76 10.17H6.53C6.11 10.17 5.78 9.83 5.78 9.42C5.78 9.01 6.11 8.67 6.53 8.67H8.92L9.2 6.18C9.25 5.77 9.62 5.47 10.03 5.52C10.44 5.56 10.74 5.93 10.69 6.35L10.43 8.67H12.08L12.36 6.18C12.41 5.77 12.78 5.47 13.19 5.52C13.6 5.56 13.9 5.93 13.85 6.35L13.59 8.67H16C16.41 8.67 16.75 9.01 16.75 9.42C16.75 9.83 16.41 10.17 16 10.17Z" />
<path d="M20.97 16H18.03C16.76 16 16 16.76 16 18.03V20.97C16 22.24 16.76 23 18.03 23H20.97C22.24 23 23 22.24 23 20.97V18.03C23 16.76 22.24 16 20.97 16ZM21.19 19.31C21.07 19.43 20.91 19.49 20.75 19.49C20.59 19.49 20.43 19.43 20.31 19.31L20.13 19.13V21.37C20.13 21.72 19.85 22 19.5 22C19.15 22 18.87 21.72 18.87 21.37V19.13L18.69 19.31C18.45 19.55 18.05 19.55 17.81 19.31C17.57 19.07 17.57 18.67 17.81 18.43L19.06 17.18C19.11 17.13 19.18 17.09 19.25 17.06C19.27 17.05 19.29 17.05 19.31 17.04C19.36 17.02 19.41 17.01 19.47 17.01C19.49 17.01 19.51 17.01 19.53 17.01C19.6 17.01 19.66 17.02 19.73 17.05C19.74 17.05 19.74 17.05 19.75 17.05C19.82 17.08 19.88 17.12 19.93 17.17C19.94 17.18 19.94 17.18 19.95 17.18L21.2 18.43C21.44 18.67 21.44 19.07 21.19 19.31Z" />
</svg>
